X:1
T:Vals Venezuelano
T:Anonimo
T:Anonimo - Vals Venezuelano
T:Anonimo - Vals Venezuelano
Z:Anonimo - Vals Venezuelano
%%score [ 1 ( 2 3 ) ]
L:1/8
M:3/4
K:C
V:1 treble-8 nm="Guitar"
V:2 treble-8 nm="Guitar"
V:3 treble-8 
V:1
 z !0!e!3!f!0!e!1!^d!0!e | !4!c'2- c'!0!e c'2- | c'ec'ec'e | !4!c'2 !3!b!2!^a !3!b2 | %4
 z !0!e!3!f!0!e!1!^d!0!e | !4!b2- b!0!e b2- | bebebe | !4!b2 !2!a!1!^g !2!a2 | %8
 z !0!e!3!f!0!e!1!^d!0!e | !3!_b2- b!3!a a2 | z !3!a aaaa |!3!g!1!f!0!e!3!g !1!f2 | %12
 z !1!f!0!e!3!d!1!c!0!B | !2!A!1!^G!2!A!0!B!1!c!3!d | !0!e!1!f!0!e!3!d!1!c!0!B | %15
 !2!A2 !1!c2 !0!e2 | !4!a!0!eeeee | !3!e'!1!d'!0!ee'd'e | e'd'ee'd'e | !3!d'!1!c'!0!ed'c'e | %20
 d'c'ed'c'e |!2!c'!1!b!0!ec'be | c'bec'be | !3!b!1!a!0!ebae | baebae | !3!a!1!g!0!eage | ageage | %27
 !3!g!1!f!0!e!3!g !1!f2 | z !1!f!0!e!3!d!1!c!0!B |!2!A!1!^G!2!A!0!B!1!c!3!d | %30
 !0!e!1!f!0!e!3!d!1!c!0!B | !2!A2 !1!c2 !0!e2 | !4!a!0!e ee ee | !3!e'!1!d'!0!ee'd'e | e'd'ee'd'e | %35
 !3!d'!1!c'!0!ed'c'e | d'c'ed'c'e |!2!c'!1!b!0!ec'be | c'bec'be | !3!b!1!a!0!ebae | baebae | %41
 !3!a!1!g!0!eage | ageage | !3!g!1!f!0!e!3!g !1!f2 | z !1!f!0!e!3!d!1!c!0!B | %45
 !2!A!1!^G!2!A!0!B!1!c!3!d | !0!e!1!f!0!e!3!d!1!c!0!B | A2 c2 e2 a |] %48
V:2
 z6 |"Am" z2 [Ace]2 [Ace]2 | z2 [Ace]2 [Ace]2 |"E" z2 [^GBe]2 [GBe]2 | z2 [^GBe]2 [GBe]2 | %5
"E" z2 [^GBe]2 [GBe]2 | z2 [^GBe]2 [GBe]2 |"Am" z2 [Ace]2 [Ace]2 | z2 [Ace]2 [Ace]2 | %9
"A7" z2 [G^ce]2 [Gce]2 | z2 [G^ce]2 [Gce]2 |"Dm" z2 [Adf]2 [Adf]2 | z2 [Adf]2 [Adf]2 | %13
"Am/E" z2 [Ace]2 [Ace]2 |"E" z2 [^GBe]2 [GBe]2 |"Am" z2 [Ace]2 [Ace]2 | z2 z4 | %17
"E" z2 [^GBe]2 [GBe]2 | z2 [^GBe]2 [GBe]2 |"Am" z2 [Ace]2 [Ace]2 | z2 [Ace]2 [Ace]2 | %21
"E" z2 [^GBe]2 [GBe]2 | z2 [^GBe]2 [GBe]2 |"Am" z2 [Ace]2 [Ace]2 | z2 [Ace]2 [Ace]2 | %25
"A7" z2 [G^ce]2 [Gce]2 | z2 [G^ce]2 [Gce]2 |"Dm" z2 [Adf]2 [Adf]2 | z2 [Adf]2 [Adf]2 | %29
"Am/E" z2 [Ace]2 [Ace]2 |"E" z2 [^GBe]2 [GBe]2 |"Am" z2 [Ace]2 [Ace]2 | z2 z4 | %33
"E" z2 [^GBe]2 [GBe]2 | z2 [^GBe]2 [GBe]2 |"Am" z2 [Ace]2 [Ace]2 | z2 [Ace]2 [Ace]2 | %37
"E" z2 [^GBe]2 [GBe]2 | z2 [^GBe]2 [GBe]2 |"Am" z2 [Ace]2 [Ace]2 | z2 [Ace]2 [Ace]2 | %41
"A7" z2 [G^ce]2 [Gce]2 | z2 [G^ce]2 [Gce]2 |"Dm" z2 [Adf]2 [Adf]2 | z2 [Adf]2 [Adf]2 | %45
"Am/E" z2 [Ace]2 [Ace]2 |"E" z2 [^GBe]2 [GBe]2 |"Am" z2 [Ace]2 [Ace]2 [EAce] |] %48
V:3
 x6 | A,6 | A,6 | E,6 | E,6 | E,6 | E,6 | A,6 | A,6 | A,6 | A,6 | D6 | D6 | E6 | E,6 | A,6 | A,6 | %17
 E,6 | E,6 | A,6 | A,6 | E,6 | E,6 | A,6 | A,6 | A,6 | A,6 | D6 | D6 | E6 | E,6 | A,6 | A,6 | E,6 | %34
 E,6 | A,6 | A,6 | E,6 | E,6 | A,6 | A,6 | A,6 | A,6 | D6 | D6 | E6 | E,6 | A,6 A, |] %48

